src/topics/icons/v8-ignition.svg

<svg height="304" preserveAspectRatio="xMidYMid" viewBox="0 0 256 304" width="256" xmlns="http://www.w3.org/2000/svg" xmlns:xlink="http://www.w3.org/1999/xlink"><linearGradient id="a" x1="-26.259866%" x2="99.866424%" y1="20.881864%" y2="90.009983%"><stop offset="0" stop-color="#231f20" stop-opacity=".16"/><stop offset="1" stop-color="#231f20" stop-opacity="0"/></linearGradient><radialGradient id="b" cx="10.534691%" cy=".168765%" gradientTransform="matrix(1 0 0 .841682 0 .000267)" r="142.584341%"><stop offset="0" stop-color="#fff" stop-opacity=".1"/><stop offset="1" stop-color="#fff" stop-opacity="0"/></radialGradient><ellipse cx="128" cy="156.840506" fill="#4285f4" rx="127.270886" ry="125.488608"/><path d="m128 280.303797c-69.9139241 0-126.70379747-55.655696-127.27088608-124.516455v.972152c0 69.265822 56.95189878 125.488607 127.27088608 125.488607 70.318987 0 127.270886-56.222785 127.270886-125.488607v-.972152c-.567089 68.860759-57.356962 124.516455-127.270886 124.516455z" fill="#263238" opacity=".2"/><path d="m128 33.3772152c69.913924 0 126.703797 55.6556962 127.270886 124.5164558v-.972152c0-69.2658228-56.951899-125.4886076-127.270886-125.4886076-70.3189873 0-127.27088608 56.1417721-127.27088608 125.4075946v.972152c.56708861-68.7797466 57.35696198-124.4354428 127.27088608-124.4354428z" fill="#fff" opacity=".2"/><path d="m97.7822785 61.0835443v37.5088608l30.2177215 40.5873419 30.217722-41.6405065v-36.4556962h35.726582l34.916455-60.43544303h-201.6405058l34.835443 60.43544303z" fill="#424242"/><path d="m90.0860759 61.0835443h-28.0303797l9.964557 17.2556962h18.0658227zm75.8278481 17.2556962h18.065823l9.964557-17.2556962h-28.03038z" fill="#9e9e9e"/><path d="m158.217722 242.632911v-24.70886l-30.217722-41.478481-30.2177215 41.478481v24.70886h-35.6455696l-34.9974684 60.435443h201.7215185l-34.835443-60.435443z" fill="#424242"/><path d="m158.217722 94.4607595-30.217722 41.7215185-30.2177215-40.7493666v3.1594937l30.2177215 40.5873419 30.217722-41.6405065z" fill="#263238" opacity=".2"/><path d="m27.2202532.64810127h201.5594938l-1.21519 2.10632911h-199.129114z" fill="#fff" opacity=".2"/><path d="m97.7822785 221.002532 30.2987345-41.559494 30.136709 41.559494v-3.078481l-30.136709-41.478481-30.2987345 41.397468zm130.9974685 81.98481h-201.5594938l1.2151898-2.187342h199.129114z" fill="#263238" opacity=".2"/><path d="m228.779747 302.987342-1.21519-2.187342-24.546835-42.612658c26.005063-18.713924 44.475949-46.906329 50.30886-79.392405l-117.630379-119.1696205-15.797469 185.9240505 55.817722 57.437975 53.144303.081012z" fill="url(#a)"/><path d="m135.696203 59.6253165-56.7088612 113.4987345h41.1544302l-.243038 72.425316 57.437975-114.146835h-41.883544z" fill="#e8e8e8"/><path d="m135.696203 59.6253165-55.6556967 111.4734175h40.1012657l-.243038 72.425317 56.38481-112.121519h-40.830379z" fill="#fff"/><path d="m97.7822785 61.0835443h-35.7265823l9.964557 17.2556962h25.7620253zm60.4354435 17.2556962h25.762025l9.964557-17.2556962h-35.726582z" fill="#9e9e9e"/><path d="m158.217722 76.3139241v2.0253164h25.762025l1.21519-2.1063291zm-60.4354435 0-26.9772152-.0810127 1.2151899 2.1063291h25.7620253z" fill="#263238" opacity=".3"/><path d="m255.270886 157.812658v-.972152c0-43.422784-22.440506-81.7417718-56.465823-104.2632908l30.055696-51.92911393h-201.6405058l29.9746835 51.92911393c-34.0253164 22.521519-56.46582278 60.8405068-56.46582278 104.2632908v.972152c.32405064 41.235443 20.90126578 77.772152 52.33417718 100.455696l-24.6278481 42.531646-1.2151898 2.187342-.0810127.081012h201.6405065l-.081013-.081012-1.21519-2.187342-24.546835-42.612658c31.513924-22.602532 52.010126-59.058228 52.334177-100.374684z" fill="url(#b)"/></svg>

<?xml version="1.0" encoding="UTF-8"?>
<svg width="256px" height="304px" viewBox="0 0 256 304" version="1.1" xmlns="http://www.w3.org/2000/svg" xmlns:xlink="http://www.w3.org/1999/xlink" preserveAspectRatio="xMidYMid">
    <defs>
        <linearGradient x1="-26.2598664%" y1="20.8818636%" x2="99.8664238%" y2="90.0099834%" id="linearGradient-1">
            <stop stop-color="#231F20" stop-opacity="0.16" offset="0%"></stop>
            <stop stop-color="#231F20" stop-opacity="0" offset="100%"></stop>
        </linearGradient>
        <radialGradient cx="10.5346913%" cy="0.168765068%" fx="10.5346913%" fy="0.168765068%" r="142.584341%" gradientTransform="translate(0.105347,0.001688),scale(1.000000,0.841682),translate(-0.105347,-0.001688)" id="radialGradient-2">
            <stop stop-color="#FFFFFF" stop-opacity="0.1" offset="0%"></stop>
            <stop stop-color="#FFFFFF" stop-opacity="0" offset="100%"></stop>
        </radialGradient>
    </defs>
		<g>
				<ellipse fill="#4285F4" cx="128" cy="156.840506" rx="127.270886" ry="125.488608"></ellipse>
				<path d="M128,280.303797 C58.0860759,280.303797 1.29620253,224.648101 0.729113924,155.787342 L0.729113924,156.759494 C0.729113924,226.025316 57.6810127,282.248101 128,282.248101 C198.318987,282.248101 255.270886,226.025316 255.270886,156.759494 L255.270886,155.787342 C254.703797,224.648101 197.913924,280.303797 128,280.303797 Z" fill="#263238" opacity="0.2"></path>
				<path d="M128,33.3772152 C197.913924,33.3772152 254.703797,89.0329114 255.270886,157.893671 L255.270886,156.921519 C255.270886,87.6556962 198.318987,31.4329114 128,31.4329114 C57.6810127,31.4329114 0.729113924,87.5746835 0.729113924,156.840506 L0.729113924,157.812658 C1.29620253,89.0329114 58.0860759,33.3772152 128,33.3772152 Z" fill="#FFFFFF" opacity="0.2"></path>
				<polygon fill="#424242" points="97.7822785 61.0835443 97.7822785 98.5924051 128 139.179747 158.217722 97.5392405 158.217722 61.0835443 193.944304 61.0835443 228.860759 0.648101266 27.2202532 0.648101266 62.0556962 61.0835443"></polygon>
				<path d="M90.0860759,61.0835443 L62.0556962,61.0835443 L72.0202532,78.3392405 L90.0860759,78.3392405 L90.0860759,61.0835443 Z M165.913924,78.3392405 L183.979747,78.3392405 L193.944304,61.0835443 L165.913924,61.0835443 L165.913924,78.3392405 Z" fill="#9E9E9E"></path>
				<polygon fill="#424242" points="158.217722 242.632911 158.217722 217.924051 128 176.44557 97.7822785 217.924051 97.7822785 242.632911 62.1367089 242.632911 27.1392405 303.068354 228.860759 303.068354 194.025316 242.632911"></polygon>
				<polygon fill="#263238" opacity="0.2" points="158.217722 94.4607595 128 136.182278 97.7822785 95.4329114 97.7822785 98.5924051 128 139.179747 158.217722 97.5392405"></polygon>
				<polygon fill="#FFFFFF" opacity="0.2" points="27.2202532 0.648101266 228.779747 0.648101266 227.564557 2.75443038 28.435443 2.75443038"></polygon>
				<path d="M97.7822785,221.002532 L128.081013,179.443038 L158.217722,221.002532 L158.217722,217.924051 L128.081013,176.44557 L97.7822785,217.843038 L97.7822785,221.002532 Z M228.779747,302.987342 L27.2202532,302.987342 L28.435443,300.8 L227.564557,300.8 L228.779747,302.987342 Z" fill="#263238" opacity="0.2"></path>
				<path d="M228.779747,302.987342 L227.564557,300.8 L203.017722,258.187342 C229.022785,239.473418 247.493671,211.281013 253.326582,178.794937 L135.696203,59.6253165 L119.898734,245.549367 L175.716456,302.987342 L228.860759,303.068354 L228.779747,302.987342 Z" fill="url(#linearGradient-1)"></path>
				<polygon fill="#E8E8E8" points="135.696203 59.6253165 78.9873418 173.124051 120.141772 173.124051 119.898734 245.549367 177.336709 131.402532 135.453165 131.402532"></polygon>
				<polygon fill="#FFFFFF" points="135.696203 59.6253165 80.0405063 171.098734 120.141772 171.098734 119.898734 243.524051 176.283544 131.402532 135.453165 131.402532"></polygon>
				<path d="M97.7822785,61.0835443 L62.0556962,61.0835443 L72.0202532,78.3392405 L97.7822785,78.3392405 L97.7822785,61.0835443 Z M158.217722,78.3392405 L183.979747,78.3392405 L193.944304,61.0835443 L158.217722,61.0835443 L158.217722,78.3392405 Z" fill="#9E9E9E"></path>
				<path d="M158.217722,76.3139241 L158.217722,78.3392405 L183.979747,78.3392405 L185.194937,76.2329114 L158.217722,76.3139241 Z M97.7822785,76.3139241 L70.8050633,76.2329114 L72.0202532,78.3392405 L97.7822785,78.3392405 L97.7822785,76.3139241 Z" fill="#263238" opacity="0.3"></path>
				<path d="M255.270886,157.812658 L255.270886,156.840506 C255.270886,113.417722 232.83038,75.0987342 198.805063,52.5772152 L228.860759,0.648101266 L27.2202532,0.648101266 L57.1949367,52.5772152 C23.1696203,75.0987342 0.729113924,113.417722 0.729113924,156.840506 L0.729113924,157.812658 C1.05316456,199.048101 21.6303797,235.58481 53.0632911,258.268354 L28.435443,300.8 L27.2202532,302.987342 L27.1392405,303.068354 L228.779747,303.068354 L228.698734,302.987342 L227.483544,300.8 L202.936709,258.187342 C234.450633,235.58481 254.946835,199.129114 255.270886,157.812658 Z" fill="url(#radialGradient-2)"></path>
		</g>
</svg>
